X: 1
T: the Fine Companion   [Dm]
O: Playford 1651
B: Playford 1651
B: Barnes v.1 p.39
Z: 2013 John Chambers <jc:trillian.mit.edu>
N: Chords from Peter Barnes' book, modified slightly during playing.
%P: Play 3 times
L: 1/8
M: 6/8
K: Dm
    f3 |\
"Dm"d2f    dda  | "Am"c>de "Dm"f>ed |  "F"a2g     aag | "C"ae2 e2d "I"|\
"Am"eee    e2d  | "Am"c>de     A2e  | "Dm"f2d "Am"cde | "Dm"d3 :|
|: f2d |\
 "F"cAA "C"e2d  | "Am"cAB      A2e  | "Dm"fde "Bb"fde |  "F"f3 "C"g3 |\
"Dm"aaa "C"c>de | "Dm"ffe      fda  | "Am"ccd     ecA | "Dm"d3 :|
